ui/StatusQ/src/assets/img/icons/add-circle.svg

<svg fill="none" height="24" viewBox="0 0 24 24" width="24" xmlns="http://www.w3.org/2000/svg"><g fill="#000"><path d="m11.9999 7.25c.4142 0 .75.33579.75.75v2.75c0 .2761.2239.5.5.5h2.75c.4142 0 .75.3358.75.75s-.3358.75-.75.75h-2.75c-.2761 0-.5.2239-.5.5v2.75c0 .4142-.3358.75-.75.75s-.75-.3358-.75-.75v-2.75c0-.2761-.2238-.5-.5-.5h-2.74998c-.41421 0-.75-.3358-.75-.75s.33579-.75.75-.75h2.74998c.2762 0 .5-.2239.5-.5v-2.75c0-.41421.3358-.75.75-.75z"/><path clip-rule="evenodd" d="m11.9999 22c5.5229 0 10-4.4772 10-10 0-5.52285-4.4771-10-10-10-5.52282 0-9.99998 4.47715-9.99998 10 0 5.5228 4.47716 10 9.99998 10zm0-1.5c4.6944 0 8.5-3.8056 8.5-8.5 0-4.69442-3.8056-8.5-8.5-8.5s-8.49998 3.80558-8.49998 8.5c0 4.6944 3.80558 8.5 8.49998 8.5z" fill-rule="evenodd"/></g></svg>

<svg width="24" height="24" viewBox="0 0 24 24" fill="none" xmlns="http://www.w3.org/2000/svg">
<path d="M11.9999 7.25C12.4141 7.25 12.7499 7.58579 12.7499 8V10.75C12.7499 11.0261 12.9738 11.25 13.2499 11.25H15.9999C16.4141 11.25 16.7499 11.5858 16.7499 12C16.7499 12.4142 16.4141 12.75 15.9999 12.75H13.2499C12.9738 12.75 12.7499 12.9739 12.7499 13.25V16C12.7499 16.4142 12.4141 16.75 11.9999 16.75C11.5857 16.75 11.2499 16.4142 11.2499 16V13.25C11.2499 12.9739 11.0261 12.75 10.7499 12.75H7.99992C7.58571 12.75 7.24992 12.4142 7.24992 12C7.24992 11.5858 7.58571 11.25 7.99992 11.25H10.7499C11.0261 11.25 11.2499 11.0261 11.2499 10.75V8C11.2499 7.58579 11.5857 7.25 11.9999 7.25Z" fill="black"/>
<path fill-rule="evenodd" clip-rule="evenodd" d="M11.9999 22C17.5228 22 21.9999 17.5228 21.9999 12C21.9999 6.47715 17.5228 2 11.9999 2C6.47708 2 1.99992 6.47715 1.99992 12C1.99992 17.5228 6.47708 22 11.9999 22ZM11.9999 20.5C16.6943 20.5 20.4999 16.6944 20.4999 12C20.4999 7.30558 16.6943 3.5 11.9999 3.5C7.3055 3.5 3.49992 7.30558 3.49992 12C3.49992 16.6944 7.3055 20.5 11.9999 20.5Z" fill="black"/>
</svg>
